svgs/thin/arrow-down-short-wide.svg

<svg xmlns="http://www.w3.org/2000/svg" viewBox="0 0 576 512"><!--! Font Awesome Pro 6.3.0 by @fontawesome - https://fontawesome.com License - https://fontawesome.com/license (Commercial License) Copyright 2023 Fonticons, Inc. --><path d="M210.1 370.7L136 451.5V40C136 35.59 132.4 32 128 32S120 35.59 120 40v411.5l-74.1-80.85c-1.594-1.719-3.75-2.594-5.906-2.594c-1.938 0-3.875 .6875-5.406 2.094c-3.25 3.002-3.469 8.064-.5 11.32l88 96.02c3.062 3.312 8.75 3.312 11.81 0l88-96.02c2.969-3.252 2.75-8.314-.5-11.32C218.2 367.2 213.1 367.4 210.1 370.7zM264 192h144C412.4 192 416 188.4 416 184S412.4 176 408 176h-144C259.6 176 256 179.6 256 184S259.6 192 264 192zM264 64h80C348.4 64 352 60.41 352 56S348.4 48 344 48h-80C259.6 48 256 51.59 256 56S259.6 64 264 64zM264 320h208C476.4 320 480 316.4 480 312S476.4 304 472 304h-208C259.6 304 256 307.6 256 312S259.6 320 264 320zM536 432h-272C259.6 432 256 435.6 256 440S259.6 448 264 448h272c4.406 0 8-3.594 8-8S540.4 432 536 432z"/></svg>

<svg xmlns="http://www.w3.org/2000/svg" viewBox="0 0 576 512"><!-- Font Awesome Pro 6.0.0-alpha2 by @fontawesome - https://fontawesome.com License - https://fontawesome.com/license (Commercial License) --><path d="M210.098 370.676L136 451.529V40.002C136 35.594 132.406 32 128 32S120 35.594 120 40.002V451.529L45.902 370.676C44.309 368.957 42.152 368.082 39.996 368.082C38.059 368.082 36.121 368.77 34.59 370.176C31.34 373.178 31.121 378.24 34.09 381.492L122.094 477.516C125.156 480.828 130.844 480.828 133.906 477.516L221.91 381.492C224.879 378.24 224.66 373.178 221.41 370.176C218.16 367.176 213.098 367.395 210.098 370.676ZM264 192H408C412.406 192 416 188.406 416 184S412.406 176 408 176H264C259.594 176 256 179.594 256 184S259.594 192 264 192ZM264 64H344C348.406 64 352 60.406 352 56S348.406 48 344 48H264C259.594 48 256 51.594 256 56S259.594 64 264 64ZM264 320H472C476.406 320 480 316.406 480 312S476.406 304 472 304H264C259.594 304 256 307.594 256 312S259.594 320 264 320ZM536 432H264C259.594 432 256 435.594 256 440S259.594 448 264 448H536C540.406 448 544 444.406 544 440S540.406 432 536 432Z"/></svg>
